icons/1_Primary/CrowdNode.svg

<svg width="1024" height="1024" fill="none" xmlns="http://www.w3.org/2000/svg"><g clip-path="url(#a)"><path d="M512 1024c282.77 0 512-229.23 512-512S794.77 0 512 0 0 229.23 0 512s229.23 512 512 512Z" fill="#9ABEFF"/><path d="M488.74 226.21c68.77-14.34 139.13 37.26 145.82 107.26 9.7 74.96-55.63 143.32-130.98 136.96-143.99-13.85-156-213.01-14.84-244.22ZM265.29 536.89c12.32-31.55 45.29-54.12 79.41-52.26 33.22.44 63.56 23.84 74.94 54.61-28.12 1.89-55.36 15.72-72.14 38.57-15.33 19.86-21.31 45.75-18.65 70.52-19.45-3.62-37.55-13.8-50.09-29.16-19.28-22.16-24.25-55.11-13.47-82.29v.01Zm207.32-42.27c44.09-24.7 100.32-2.01 117.27 45.04-31.71 3.68-61.03 23.32-75.49 51.93-1.29 5.4-5.07.44-5.93-1.87-14.46-27.76-43.4-46.3-74.23-50.06 6.86-19.01 20.85-35.14 38.38-45.04Zm172.02-1.07c38.3-20.13 87.02-5.24 108.57 32.01 29.35 49.18-2.11 113.4-58.04 122.78 2.85-26.03-4.09-53.24-20.98-73.49-16.84-21.15-42.93-33.71-69.73-35.61 7.21-19.48 21.86-35.99 40.19-45.7l-.01.01ZM347.64 605.3c12.37-31.46 45.32-53.96 79.38-52.09 38.1.47 72.25 31.16 78.53 68.44-28.09 2.41-55.05 16.82-71.37 39.97-11.99 16.07-17.61 35.99-18.49 55.88-21.2-2.66-41.23-13.19-54.75-29.84-19.23-22.22-24.14-55.19-13.3-82.35v-.01Zm171.55 16.43c5.05-40.57 45.73-72.12 86.21-68.38 41.64 1.95 77.55 40.13 76.59 81.85 1.12 41.04-33.16 78.21-73.68 82.29-.88-19.91-6.53-39.86-18.54-55.96-16.18-22.9-42.82-37.22-70.58-39.8Zm-17.72 14.35c46.14-7.35 92.39 32.04 92.72 78.67 2.77 43.83-35.58 84.79-79.44 85.12-43.72 2.66-84.49-35.55-84.93-79.27-2.47-41.09 30.91-79.99 71.65-84.51v-.01Z" fill="#fff"/></g><defs><clipPath id="a"><path fill="#fff" d="M0 0h1024v1024H0z"/></clipPath></defs></svg>

<svg width="1024" height="1024" viewBox="0 0 1024 1024" fill="none" xmlns="http://www.w3.org/2000/svg">
<g clip-path="url(#clip0_2_1917)">
<path d="M512 1024C794.77 1024 1024 794.77 1024 512C1024 229.23 794.77 0 512 0C229.23 0 0 229.23 0 512C0 794.77 229.23 1024 512 1024Z" fill="#9ABEFF"/>
<path d="M488.74 226.21C557.51 211.87 627.87 263.47 634.56 333.47C644.26 408.43 578.93 476.79 503.58 470.43C359.59 456.58 347.58 257.42 488.74 226.21ZM265.29 536.89C277.61 505.34 310.58 482.77 344.7 484.63C377.92 485.07 408.26 508.47 419.64 539.24C391.52 541.13 364.28 554.96 347.5 577.81C332.17 597.67 326.19 623.56 328.85 648.33C309.4 644.71 291.3 634.53 278.76 619.17C259.48 597.01 254.51 564.06 265.29 536.88V536.89ZM472.61 494.62C516.7 469.92 572.93 492.61 589.88 539.66C558.17 543.34 528.85 562.98 514.39 591.59C513.1 596.99 509.32 592.03 508.46 589.72C494 561.96 465.06 543.42 434.23 539.66C441.09 520.65 455.08 504.52 472.61 494.62ZM644.63 493.55C682.93 473.42 731.65 488.31 753.2 525.56C782.55 574.74 751.09 638.96 695.16 648.34C698.01 622.31 691.07 595.1 674.18 574.85C657.34 553.7 631.25 541.14 604.45 539.24C611.66 519.76 626.31 503.25 644.64 493.54L644.63 493.55ZM347.64 605.3C360.01 573.84 392.96 551.34 427.02 553.21C465.12 553.68 499.27 584.37 505.55 621.65C477.46 624.06 450.5 638.47 434.18 661.62C422.19 677.69 416.57 697.61 415.69 717.5C394.49 714.84 374.46 704.31 360.94 687.66C341.71 665.44 336.8 632.47 347.64 605.31V605.3ZM519.19 621.73C524.24 581.16 564.92 549.61 605.4 553.35C647.04 555.3 682.95 593.48 681.99 635.2C683.11 676.24 648.83 713.41 608.31 717.49C607.43 697.58 601.78 677.63 589.77 661.53C573.59 638.63 546.95 624.31 519.19 621.73ZM501.47 636.08C547.61 628.73 593.86 668.12 594.19 714.75C596.96 758.58 558.61 799.54 514.75 799.87C471.03 802.53 430.26 764.32 429.82 720.6C427.35 679.51 460.73 640.61 501.47 636.09V636.08Z" fill="white"/>
</g>
<defs>
<clipPath id="clip0_2_1917">
<rect width="1024" height="1024" fill="white"/>
</clipPath>
</defs>
</svg>
